app/assets/images/icons/active/image.svg

<svg width="32" height="232" viewBox="0 0 32 232" xmlns="http://www.w3.org/2000/svg" xmlns:sketch="http://www.bohemiancoding.com/sketch/ns"><title>image</title><g sketch:type="MSPage" fill="none"><path d="M19.189 142.078c-2.8 0-5.072-2.271-5.072-5.072 0-2.8 2.272-5.072 5.072-5.072 2.799 0 5.071 2.272 5.071 5.072 0 2.801-2.272 5.072-5.071 5.072zm8.729 5.934h-23.881c-1.402 0-2.537-1.137-2.537-2.536v-16.94c0-1.4 1.135-2.536 2.537-2.536h23.881c1.402 0 2.535 1.136 2.535 2.536v16.94c0 1.399-1.133 2.536-2.535 2.536zm-18.807-19.946h-4.012c-.847 0-1.533.685-1.533 1.534 0 .846.686 1.531 1.533 1.531h4.012c.846 0 1.531-.685 1.531-1.531 0-.849-.685-1.534-1.531-1.534zm10.078.374c-4.732 0-8.566 3.835-8.566 8.566 0 4.733 3.834 8.567 8.566 8.567 4.731 0 8.565-3.834 8.565-8.567 0-4.731-3.834-8.566-8.565-8.566zm0 0" fill="#206FAC" sketch:type="MSShapeGroup"/><path d="M19.189 102.078c-2.8 0-5.072-2.271-5.072-5.072 0-2.8 2.272-5.072 5.072-5.072 2.799 0 5.071 2.272 5.071 5.072 0 2.801-2.272 5.072-5.071 5.072zm8.729 5.934h-23.881c-1.402 0-2.537-1.137-2.537-2.536v-16.94c0-1.4 1.135-2.536 2.537-2.536h23.881c1.402 0 2.535 1.136 2.535 2.536v16.94c0 1.399-1.133 2.536-2.535 2.536zm-18.807-19.946h-4.012c-.847 0-1.533.685-1.533 1.534 0 .846.686 1.531 1.533 1.531h4.012c.846 0 1.531-.685 1.531-1.531 0-.849-.685-1.534-1.531-1.534zm10.078.374c-4.732 0-8.566 3.835-8.566 8.566 0 4.733 3.834 8.567 8.566 8.567 4.731 0 8.565-3.834 8.565-8.567 0-4.731-3.834-8.566-8.565-8.566zm0 0" fill="#fff" sketch:type="MSShapeGroup"/><path d="M19.189 62.078c-2.8 0-5.072-2.271-5.072-5.072 0-2.8 2.272-5.072 5.072-5.072 2.799 0 5.071 2.272 5.071 5.072 0 2.801-2.272 5.072-5.071 5.072zm8.729 5.934h-23.881c-1.402 0-2.537-1.137-2.537-2.536v-16.94c0-1.4 1.135-2.536 2.537-2.536h23.881c1.402 0 2.535 1.136 2.535 2.536v16.94c0 1.399-1.133 2.536-2.535 2.536zm-18.807-19.946h-4.012c-.847 0-1.533.685-1.533 1.534 0 .846.686 1.531 1.533 1.531h4.012c.846 0 1.531-.685 1.531-1.531 0-.849-.685-1.534-1.531-1.534zm10.078.374c-4.732 0-8.566 3.835-8.566 8.566 0 4.733 3.834 8.567 8.566 8.567 4.731 0 8.565-3.834 8.565-8.567 0-4.731-3.834-8.566-8.565-8.566zm0 0" fill="#67737B" sketch:type="MSShapeGroup"/><path d="M19.189 22.078c-2.8 0-5.072-2.271-5.072-5.072 0-2.8 2.272-5.072 5.072-5.072 2.799 0 5.071 2.272 5.071 5.072 0 2.801-2.272 5.072-5.071 5.072zm8.729 5.934h-23.881c-1.402 0-2.537-1.137-2.537-2.536v-16.94c0-1.4 1.135-2.536 2.537-2.536h23.881c1.402 0 2.535 1.136 2.535 2.536v16.94c0 1.399-1.133 2.536-2.535 2.536zm-18.807-19.946h-4.012c-.847 0-1.533.685-1.533 1.534 0 .846.686 1.531 1.533 1.531h4.012c.846 0 1.531-.685 1.531-1.531 0-.849-.685-1.534-1.531-1.534zm10.078.374c-4.732 0-8.566 3.835-8.566 8.566 0 4.733 3.834 8.567 8.566 8.567 4.731 0 8.565-3.834 8.565-8.567 0-4.731-3.834-8.566-8.565-8.566zm0 0" fill="#3A434E" sketch:type="MSShapeGroup"/></g></svg>

<?xml version="1.0" encoding="UTF-8" standalone="no"?>
<svg width="32px" height="232px" viewBox="0 0 32 232" version="1.1" xmlns="http://www.w3.org/2000/svg" xmlns:xlink="http://www.w3.org/1999/xlink" xmlns:sketch="http://www.bohemiancoding.com/sketch/ns">
    <title>image</title>
    <description>Created with Sketch (http://www.bohemiancoding.com/sketch)</description>
    <defs></defs>
    <g id="Categories" stroke="none" stroke-width="1" fill="none" fill-rule="evenodd" sketch:type="MSPage">
        <path d="M19.189,142.078 C16.389,142.078 14.117,139.807 14.117,137.006 C14.117,134.206 16.389,131.934 19.189,131.934 C21.988,131.934 24.26,134.206 24.26,137.006 C24.26,139.807 21.988,142.078 19.189,142.078 L19.189,142.078 L19.189,142.078 L19.189,142.078 Z M27.918,148.012 L4.037,148.012 C2.635,148.012 1.5,146.875 1.5,145.476 L1.5,128.536 C1.5,127.136 2.635,126 4.037,126 L27.918,126 C29.32,126 30.453,127.136 30.453,128.536 L30.453,145.476 C30.453,146.875 29.32,148.012 27.918,148.012 L27.918,148.012 L27.918,148.012 L27.918,148.012 Z M9.111,128.066 L5.099,128.066 C4.252,128.066 3.566,128.751 3.566,129.6 C3.566,130.446 4.252,131.131 5.099,131.131 L9.111,131.131 C9.957,131.131 10.642,130.446 10.642,129.6 C10.642,128.751 9.957,128.066 9.111,128.066 L9.111,128.066 L9.111,128.066 L9.111,128.066 Z M19.189,128.44 C14.457,128.44 10.623,132.275 10.623,137.006 C10.623,141.739 14.457,145.573 19.189,145.573 C23.92,145.573 27.754,141.739 27.754,137.006 C27.754,132.275 23.92,128.44 19.189,128.44 L19.189,128.44 Z M19.189,128.44" id="image--lp-blue" fill="#206FAC" sketch:type="MSShapeGroup"></path>
        <path d="M19.189,102.078 C16.389,102.078 14.117,99.807 14.117,97.006 C14.117,94.206 16.389,91.934 19.189,91.934 C21.988,91.934 24.26,94.206 24.26,97.006 C24.26,99.807 21.988,102.078 19.189,102.078 L19.189,102.078 L19.189,102.078 L19.189,102.078 Z M27.918,108.012 L4.037,108.012 C2.635,108.012 1.5,106.875 1.5,105.476 L1.5,88.536 C1.5,87.136 2.635,86 4.037,86 L27.918,86 C29.32,86 30.453,87.136 30.453,88.536 L30.453,105.476 C30.453,106.875 29.32,108.012 27.918,108.012 L27.918,108.012 L27.918,108.012 L27.918,108.012 Z M9.111,88.066 L5.099,88.066 C4.252,88.066 3.566,88.751 3.566,89.6 C3.566,90.446 4.252,91.131 5.099,91.131 L9.111,91.131 C9.957,91.131 10.642,90.446 10.642,89.6 C10.642,88.751 9.957,88.066 9.111,88.066 L9.111,88.066 L9.111,88.066 L9.111,88.066 Z M19.189,88.44 C14.457,88.44 10.623,92.275 10.623,97.006 C10.623,101.739 14.457,105.573 19.189,105.573 C23.92,105.573 27.754,101.739 27.754,97.006 C27.754,92.275 23.92,88.44 19.189,88.44 L19.189,88.44 Z M19.189,88.44" id="image--white" fill="#FFFFFF" sketch:type="MSShapeGroup"></path>
        <path d="M19.189,62.078 C16.389,62.078 14.117,59.807 14.117,57.006 C14.117,54.206 16.389,51.934 19.189,51.934 C21.988,51.934 24.26,54.206 24.26,57.006 C24.26,59.807 21.988,62.078 19.189,62.078 L19.189,62.078 L19.189,62.078 L19.189,62.078 Z M27.918,68.012 L4.037,68.012 C2.635,68.012 1.5,66.875 1.5,65.476 L1.5,48.536 C1.5,47.136 2.635,46 4.037,46 L27.918,46 C29.32,46 30.453,47.136 30.453,48.536 L30.453,65.476 C30.453,66.875 29.32,68.012 27.918,68.012 L27.918,68.012 L27.918,68.012 L27.918,68.012 Z M9.111,48.066 L5.099,48.066 C4.252,48.066 3.566,48.751 3.566,49.6 C3.566,50.446 4.252,51.131 5.099,51.131 L9.111,51.131 C9.957,51.131 10.642,50.446 10.642,49.6 C10.642,48.751 9.957,48.066 9.111,48.066 L9.111,48.066 L9.111,48.066 L9.111,48.066 Z M19.189,48.44 C14.457,48.44 10.623,52.275 10.623,57.006 C10.623,61.739 14.457,65.573 19.189,65.573 C23.92,65.573 27.754,61.739 27.754,57.006 C27.754,52.275 23.92,48.44 19.189,48.44 L19.189,48.44 Z M19.189,48.44" id="image--body-grey" fill="#67737B" sketch:type="MSShapeGroup"></path>
        <path d="M19.189,22.078 C16.389,22.078 14.117,19.807 14.117,17.006 C14.117,14.206 16.389,11.934 19.189,11.934 C21.988,11.934 24.26,14.206 24.26,17.006 C24.26,19.807 21.988,22.078 19.189,22.078 L19.189,22.078 L19.189,22.078 L19.189,22.078 Z M27.918,28.012 L4.037,28.012 C2.635,28.012 1.5,26.875 1.5,25.476 L1.5,8.536 C1.5,7.136 2.635,6 4.037,6 L27.918,6 C29.32,6 30.453,7.136 30.453,8.536 L30.453,25.476 C30.453,26.875 29.32,28.012 27.918,28.012 L27.918,28.012 L27.918,28.012 L27.918,28.012 Z M9.111,8.066 L5.099,8.066 C4.252,8.066 3.566,8.751 3.566,9.6 C3.566,10.446 4.252,11.131 5.099,11.131 L9.111,11.131 C9.957,11.131 10.642,10.446 10.642,9.6 C10.642,8.751 9.957,8.066 9.111,8.066 L9.111,8.066 L9.111,8.066 L9.111,8.066 Z M19.189,8.44 C14.457,8.44 10.623,12.275 10.623,17.006 C10.623,21.739 14.457,25.573 19.189,25.573 C23.92,25.573 27.754,21.739 27.754,17.006 C27.754,12.275 23.92,8.44 19.189,8.44 L19.189,8.44 Z M19.189,8.44" id="image--title-grey" fill="#3A434E" sketch:type="MSShapeGroup"></path>
    </g>
</svg>
